X: 19838
T: Jerry's Beaver Hat
R: jig
M: 6/8
K: Dmajor
D|DFA d2 e|fdB BAF|AFA dAF|EDE GFE|
DFA d2 e|fdB BAF|AFA dAF|EFE D2:|
d|dfa afd|gbg faf|dfa afd|cee ecA|
dfa afd|gbg faf|BdB AFD|EFE D2:|

